brandFactory_export/1.Light/(1)AI_Inteligencia Artificial_1Light.svg

<?xml version="1.0" encoding="UTF-8"?>
<svg width="24px" height="24px" viewBox="0 0 24 24" version="1.1" xmlns="http://www.w3.org/2000/svg" xmlns:xlink="http://www.w3.org/1999/xlink">
    <title>1.Light/(1)AI_Inteligencia Artificial_1Light</title>
    <g id="Symbols" stroke="none" stroke-width="1" fill="none" fill-rule="evenodd">
        <g id="1.Light/(1)AI_Inteligencia-Artificial_1Light" fill="#5CB615" fill-rule="nonzero">
            <path d="M17.8705882,5.95630252 C17.6319328,5.95966387 17.4369748,5.77142857 17.4336134,5.53277311 C17.4336134,5.30084034 17.6285714,5.1092437 17.8672269,5.1092437 C18.1058824,5.1092437 18.3008403,5.30084034 18.3008403,5.53277311 C18.3042017,5.76806723 18.1092437,5.95630252 17.8705882,5.95630252 M19.2487395,15.8453782 C19.487395,15.8453782 19.6823529,16.0336134 19.6823529,16.2689076 C19.6823529,16.5008403 19.487395,16.692437 19.2453782,16.692437 C19.010084,16.6957983 18.8151261,16.5042017 18.8117647,16.2689076 C18.8117647,16.0369748 19.0067227,15.8453782 19.2487395,15.8453782 M14.512605,12.3831933 C14.7512605,12.3831933 14.9462185,12.5747899 14.9462185,12.8067227 C14.9462185,13.0420168 14.7512605,13.2302521 14.512605,13.2302521 C14.2739496,13.2336134 14.0823529,13.0453782 14.0789916,12.8067227 C14.0756303,12.5714286 14.2705882,12.3831933 14.512605,12.3831933 M14.902521,17.5764706 C14.902521,17.3445378 15.1008403,17.1529412 15.3394958,17.1529412 C15.5781513,17.1529412 15.7731092,17.3445378 15.7731092,17.5764706 C15.7731092,17.8084034 15.5781513,18 15.3394958,18 C15.1008403,18.0033613 14.9058824,17.8117647 14.902521,17.5764706 M21.6554622,15.5764706 C21.6554622,16.6991597 21.3495798,20.3394958 17.4302521,20.4067227 L17.4235294,20.4067227 C17.1243697,20.4369748 16.7882353,20.3092437 16.4285714,20.0806723 C16.3579832,20.0369748 16.2907563,19.989916 16.2268908,19.9394958 C16.005042,19.7747899 15.6957983,19.8084034 15.5176471,20.0201681 C15.3495798,20.2285714 15.3798319,20.5310924 15.5882353,20.6991597 C15.5915966,20.702521 15.5983193,20.7058824 15.6016807,20.7092437 C15.6890756,20.7798319 15.7831933,20.8436975 15.8773109,20.9042017 C16.1394958,21.0689076 16.3983193,21.1932773 16.6537815,21.2739496 C16.2470588,22.1781513 15.4638655,22.6386555 14.3142857,22.6386555 C12.9294118,22.6386555 12.4319328,21.2235294 12.3411765,20.9210084 C12.3445378,20.6890756 12.3512605,19.9260504 12.3411765,19.7344538 L12.3411765,18.0672269 L13.9848739,18.0672269 C14.189916,18.6016807 14.7176471,18.9815126 15.3361345,18.9815126 C16.1327731,18.9815126 16.7815126,18.3495798 16.7815126,17.5731092 C16.7815126,16.7966387 16.1327731,16.1647059 15.3361345,16.1647059 C14.7176471,16.1647059 14.1932773,16.5478992 13.9848739,17.0789916 L12.3378151,17.0789916 L12.3378151,9.02521008 L13.9176471,9.02521008 L13.9176471,11.5226891 C13.4201681,11.7445378 13.0672269,12.2352941 13.0672269,12.8067227 C13.0672269,13.5831933 13.7159664,14.2151261 14.512605,14.2151261 C15.1310924,14.2151261 15.6588235,13.8319328 15.8638655,13.297479 L18.7478992,13.297479 L18.7478992,14.9546218 C18.1865546,15.1495798 17.810084,15.6773109 17.8033613,16.2689076 C17.8033613,17.0453782 18.4521008,17.6773109 19.2487395,17.6773109 C20.0453782,17.6773109 20.6941176,17.0487395 20.6941176,16.2689076 C20.687395,15.6773109 20.3142857,15.1529412 19.7563025,14.9579832 L19.7563025,12.8033613 C19.7563025,12.5310924 19.5310924,12.312605 19.2487395,12.312605 L15.8605042,12.312605 C15.6991597,11.902521 15.3563025,11.589916 14.9294118,11.4655462 L14.9294118,9.02521008 L17.8672269,9.02521008 C18.1428571,9.02857143 18.3680672,8.81008403 18.3714286,8.53445378 L18.3714286,6.85042017 C18.9193277,6.65210084 19.3159664,6.13781513 19.3159664,5.53277311 C19.3159664,4.75630252 18.6672269,4.12436975 17.8705882,4.12436975 C17.0739496,4.12436975 16.4252101,4.75294118 16.4252101,5.53277311 C16.4252101,6.13445378 16.8184874,6.64537815 17.3630252,6.84705882 L17.3630252,8.04033613 L12.3411765,8.04033613 L12.3411765,3.88907563 C12.3411765,3.6605042 12.3478992,2.79663866 12.3512605,2.5210084 C12.4756303,2.22184874 13.0571429,0.98487395 14.3176471,0.98487395 C15.4638655,0.98487395 16.2470588,1.44537815 16.6537815,2.34621849 C15.7226891,2.63193277 15.1411765,3.37478992 14.8756303,4.11092437 C14.8487395,4.18823529 14.8218487,4.26890756 14.7983193,4.33613445 C14.7176471,4.59495798 14.8621849,4.87058824 15.1210084,4.9512605 C15.1243697,4.9512605 15.1277311,4.9512605 15.1277311,4.95462185 C15.3932773,5.03529412 15.6722689,4.89411765 15.7630252,4.63193277 L15.8268908,4.44033613 C15.9613445,4.06386555 16.4285714,3.21008403 17.4302521,3.21008403 C21.3495798,3.21680672 21.6554622,6.91092437 21.6554622,8.04369748 C21.6554622,8.48739496 21.594958,9.88571429 20.9159664,11.0621849 C20.7647059,10.9512605 20.6067227,10.8470588 20.4386555,10.7563025 C21.0571429,9.97310924 20.7815126,9.16302521 20.3008403,8.66890756 L20.2067227,8.57815126 C20.0084034,8.39327731 19.7159664,8.42689076 19.5243697,8.62184874 C19.3327731,8.82016807 19.3697479,9.15966387 19.5714286,9.34789916 C20.0218487,9.81176471 19.6487395,10.1714286 19.5210084,10.2890756 C19.5042017,10.3058824 19.4941176,10.3294118 19.4806723,10.3495798 C19.205042,10.2722689 18.9193277,10.2151261 18.6336134,10.1848739 C18.3579832,10.1512605 18.1092437,10.3462185 18.0756303,10.6184874 C18.0487395,10.8907563 18.2470588,11.1327731 18.5193277,11.1630252 L18.5226891,11.1630252 C19.4033613,11.2571429 20.1058824,11.5831933 20.6201681,12.1277311 C21.5781513,13.3680672 21.6554622,15.0823529 21.6554622,15.5764706 M4.77815126,16.9277311 C4.5394958,16.9310924 4.34789916,16.7428571 4.34117647,16.5042017 C4.34117647,16.2689076 4.5394958,16.0806723 4.77815126,16.0806723 C5.01680672,16.0806723 5.21176471,16.2689076 5.21176471,16.5042017 C5.21512605,16.7361345 5.02016807,16.9277311 4.77815126,16.9277311 M8.5092437,14.292437 C8.74789916,14.292437 8.94285714,14.4840336 8.94285714,14.7159664 C8.9394958,14.9546218 8.74789916,15.1428571 8.5092437,15.1428571 C8.27058824,15.1462185 8.0789916,14.9546218 8.07563025,14.7193277 C8.07226891,14.4840336 8.26722689,14.2957983 8.5092437,14.292437 M5.07394958,8.52436975 C5.07058824,8.76302521 4.87563025,8.9512605 4.63697479,8.94789916 C4.40168067,8.9512605 4.20672269,8.75966387 4.20336134,8.52436975 C4.20336134,8.28907563 4.39831933,8.10084034 4.63697479,8.10084034 C4.8789916,8.10084034 5.07394958,8.29243697 5.07394958,8.52436975 M8.91260504,5.56638655 C8.91260504,5.80168067 8.71428571,5.98991597 8.47563025,5.98991597 C8.24033613,5.99327731 8.04537815,5.80504202 8.04201681,5.56638655 C8.04201681,5.33109244 8.23697479,5.14285714 8.47563025,5.14285714 C8.71764706,5.14285714 8.91260504,5.33445378 8.91260504,5.56638655 M9.35630252,22.6386555 C8.22016807,22.6386555 7.44369748,22.1848739 7.03361345,21.3008403 C7.32605042,21.2235294 7.62184874,21.0957983 7.9210084,20.9042017 C8.14957983,20.7630252 8.22016807,20.4638655 8.0789916,20.2386555 C8.07563025,20.2352941 8.07226891,20.2285714 8.06890756,20.2252101 C7.91428571,19.9966387 7.60168067,19.9327731 7.3697479,20.0840336 C7.01680672,20.3092437 6.68403361,20.4403361 6.37815126,20.4067227 C6.34789916,20.4067227 6.32436975,20.4168067 6.29411765,20.4201681 C6.28067227,20.4201681 6.26722689,20.4168067 6.25378151,20.4168067 C2.32436975,20.4168067 2.01848739,16.712605 2.01848739,15.5798319 C2.01848739,15.1260504 2.08571429,13.6739496 2.81176471,12.4806723 C2.90252101,12.5277311 3,12.5647059 3.09747899,12.5983193 C2.95630252,13.4588235 3.4907563,14.0739496 4.16302521,14.3294118 L4.27394958,14.3697479 C4.53613445,14.4638655 4.82184874,14.3294118 4.91932773,14.0705882 C5.01008403,13.8151261 4.87563025,13.5361345 4.62016807,13.4453782 C4.61680672,13.4453782 4.61344538,13.4420168 4.61008403,13.4420168 L4.52268908,13.4117647 C4.1092437,13.2571429 4.05882353,12.9882353 4.08907563,12.7831933 C4.13613445,12.7831933 4.18655462,12.789916 4.23361345,12.789916 C4.74789916,12.789916 5.19495798,12.6789916 5.57142857,12.4537815 C5.80336134,12.3193277 5.88403361,12.0235294 5.74957983,11.7915966 C5.74621849,11.7848739 5.74285714,11.7815126 5.7394958,11.7747899 C5.59159664,11.5394958 5.28235294,11.4689076 5.04705882,11.610084 C4.78151261,11.7680672 4.42857143,11.8285714 4.00168067,11.7915966 C3.57142857,11.7546218 3.24537815,11.6369748 3.01680672,11.4453782 C2.09915966,10.2084034 2.02184874,8.54117647 2.02184874,8.05042017 C2.02184874,6.91764706 2.32773109,3.21344538 6.35462185,3.21344538 L6.35798319,3.21344538 C6.65714286,3.20336134 6.92605042,3.26722689 7.16470588,3.40840336 C7.40336134,3.54957983 7.7092437,3.47226891 7.85714286,3.23697479 C7.99495798,3.00840336 7.92436975,2.7092437 7.69579832,2.57142857 C7.69243697,2.56806723 7.68571429,2.56470588 7.68235294,2.56470588 C7.48403361,2.45042017 7.26890756,2.36638655 7.04705882,2.31260504 C7.4605042,1.43865546 8.23697479,0.991596639 9.36638655,0.991596639 C10.7478992,0.991596639 11.2487395,2.40672269 11.3394958,2.7092437 C11.3361345,2.94453782 11.3294118,3.70420168 11.3394958,3.89243697 L11.3394958,5.07563025 L9.83697479,5.07563025 C9.61848739,4.5210084 9.08403361,4.15798319 8.48907563,4.16134454 C7.69243697,4.16134454 7.04369748,4.78991597 7.04369748,5.5697479 C7.04369748,6.34957983 7.69243697,6.97815126 8.48907563,6.97815126 C9.10756303,6.97815126 9.63193277,6.59495798 9.83697479,6.0605042 L11.3428571,6.0605042 L11.3428571,8.03361345 L5.99831933,8.03361345 C5.77983193,7.4789916 5.24537815,7.11596639 4.65042017,7.11932773 C3.85378151,7.11932773 3.20504202,7.7512605 3.20504202,8.52773109 C3.20504202,9.30420168 3.85378151,9.93613445 4.65042017,9.93613445 C5.26890756,9.93613445 5.79327731,9.55294118 6.00168067,9.01848739 L11.3428571,9.01848739 L11.3428571,10.7596639 L8.51932773,10.7596639 C8.24369748,10.7563025 8.01848739,10.9781513 8.01512605,11.2504202 L8.01512605,13.4016807 C7.45714286,13.6 7.08067227,14.1243697 7.07731092,14.7159664 C7.07731092,15.492437 7.72605042,16.1243697 8.52268908,16.1243697 C9.31932773,16.1243697 9.96806723,15.492437 9.96806723,14.7159664 C9.96806723,14.1109244 9.57478992,13.6033613 9.02689076,13.4016807 L9.02689076,11.7411765 L11.3462185,11.7411765 L11.3462185,18.1445378 L5.29579832,18.1445378 L5.29579832,17.8184874 C5.84369748,17.6168067 6.23697479,17.1058824 6.23697479,16.5008403 C6.23697479,15.7243697 5.58823529,15.092437 4.79159664,15.092437 C3.99495798,15.092437 3.34621849,15.7243697 3.34621849,16.5008403 C3.34621849,17.1058824 3.7394958,17.6168067 4.28739496,17.8184874 L4.28739496,18.6386555 C4.28739496,18.9109244 4.51260504,19.1294118 4.79159664,19.1294118 L11.3462185,19.1294118 L11.3462185,19.7344538 C11.3462185,19.9663866 11.3394958,20.8268908 11.3361345,21.1058824 C11.1983193,21.4117647 10.6201681,22.6386555 9.35630252,22.6386555 M22.6638655,8.04705882 C22.6638655,7.09915966 22.4252101,2.47058824 17.6991597,2.24201681 C17.1815126,0.793277311 15.9915966,0 14.3176471,0 C13.0403361,0 12.2605042,0.766386555 11.8235294,1.41176471 C11.3462185,0.68907563 10.5529412,0 9.35630252,0 C7.68235294,0 6.49579832,0.789915966 5.97478992,2.23193277 C1.25210084,2.40672269 1.01008403,7.09243697 1.01008403,8.04705882 C1.01008403,8.58487395 1.08739496,10.3663866 2.04201681,11.8084034 C1.08739496,13.2537815 1.01008403,15.0386555 1.01008403,15.5798319 C1.01008403,16.5277311 1.2487395,21.1596639 5.97478992,21.3848739 C6.49243697,22.8336134 7.68235294,23.6268908 9.35966387,23.6268908 C10.6369748,23.6268908 11.4168067,22.8605042 11.8537815,22.2151261 C12.3277311,22.9378151 13.1243697,23.6268908 14.3210084,23.6268908 C15.994958,23.6268908 17.1815126,22.8403361 17.702521,21.3983193 C22.4252101,21.2201681 22.6672269,16.5344538 22.6672269,15.5798319 C22.6672269,15.0420168 22.589916,13.2605042 21.6352941,11.8184874 C22.5865546,10.3697479 22.6638655,8.58487395 22.6638655,8.04705882" id="(1)AI_Inteligencia-Artificial_1Light"></path>
        </g>
    </g>
</svg>

<svg width="24" height="24" viewBox="0 0 24 24" xmlns="http://www.w3.org/2000/svg"><path d="M17.87 5.956a.429.429 0 01-.436-.423.43.43 0 01.433-.424.43.43 0 01.434.424.423.423 0 01-.43.423m1.378 9.89c.238 0 .433.188.433.423a.431.431 0 01-.437.423.43.43 0 01-.433-.423c0-.232.195-.424.437-.424m-4.736-3.462a.43.43 0 01.433.424.428.428 0 01-.433.423.424.424 0 110-.847m.39 5.193c0-.231.198-.423.436-.423a.43.43 0 01.434.423.43.43 0 01-.434.424.431.431 0 01-.436-.424m6.752-2c0 1.123-.305 4.763-4.225 4.83h-.006c-.3.031-.636-.097-.995-.325a2.16 2.16 0 01-.202-.142.52.52 0 00-.71.081.481.481 0 00.071.68l.014.01a3.387 3.387 0 001.052.565c-.407.903-1.19 1.364-2.34 1.364-1.385 0-1.882-1.415-1.973-1.718.004-.232.01-.995 0-1.187v-1.667h1.644c.205.535.733.915 1.351.915.797 0 1.446-.632 1.446-1.409 0-.776-.65-1.408-1.446-1.408a1.45 1.45 0 00-1.351.914h-1.647V9.025h1.58v2.498c-.498.222-.85.712-.85 1.284 0 .776.648 1.408 1.445 1.408.618 0 1.146-.383 1.35-.918h2.885v1.658a1.408 1.408 0 00-.945 1.314c0 .776.65 1.408 1.446 1.408.796 0 1.445-.628 1.445-1.408a1.403 1.403 0 00-.938-1.311v-2.155a.497.497 0 00-.507-.49H15.86a1.427 1.427 0 00-.932-.847v-2.44h2.938c.276.003.501-.216.504-.492V6.85c.548-.198.945-.712.945-1.317 0-.777-.649-1.409-1.445-1.409-.797 0-1.446.629-1.446 1.409 0 .601.393 1.112.938 1.314V8.04h-5.022V3.89c0-.23.007-1.093.01-1.369.125-.3.706-1.536 1.967-1.536 1.146 0 1.93.46 2.336 1.361-.931.286-1.513 1.029-1.778 1.765l-.078.225a.491.491 0 00.33.619c.265.08.544-.06.635-.323l.064-.192c.134-.376.602-1.23 1.603-1.23 3.92.007 4.225 3.7 4.225 4.834 0 .443-.06 1.842-.739 3.018a4.117 4.117 0 00-.477-.306c.618-.783.343-1.593-.138-2.087l-.094-.09c-.199-.186-.491-.152-.683.043-.191.198-.154.538.047.726.45.464.078.823-.05.941-.017.017-.027.04-.04.06a5.167 5.167 0 00-.847-.164.5.5 0 00-.558.433.5.5 0 00.443.545h.004c.88.094 1.583.42 2.097.965.958 1.24 1.035 2.954 1.035 3.448M4.778 16.928a.431.431 0 01-.437-.424c0-.235.198-.423.437-.423s.434.188.434.423a.426.426 0 01-.434.424m3.731-2.636a.43.43 0 01.434.424.431.431 0 01-.434.427.428.428 0 01-.433-.424.429.429 0 01.433-.427M5.074 8.524a.429.429 0 01-.437.424.43.43 0 01-.434-.424c0-.235.195-.423.434-.423.242 0 .437.191.437.423m3.839-2.958a.431.431 0 01-.437.424.428.428 0 01-.434-.424c0-.235.195-.423.434-.423.242 0 .437.191.437.423m.443 17.073c-1.136 0-1.912-.454-2.322-1.338.292-.077.588-.205.887-.397.229-.141.3-.44.158-.665l-.01-.014a.51.51 0 00-.7-.141c-.352.225-.685.356-.99.323-.031 0-.055.01-.085.013l-.04-.003c-3.93 0-4.236-3.704-4.236-4.837 0-.454.068-1.906.794-3.1.09.048.188.085.285.118-.14.86.394 1.476 1.066 1.731l.11.04a.506.506 0 00.646-.298.49.49 0 00-.299-.626l-.01-.003-.087-.03c-.414-.155-.464-.424-.434-.629.047 0 .098.007.145.007.514 0 .961-.111 1.337-.336a.485.485 0 00.179-.662l-.01-.017a.51.51 0 00-.693-.165c-.265.158-.618.219-1.045.182-.43-.037-.757-.155-.985-.347-.918-1.237-.995-2.904-.995-3.395 0-1.132.306-4.837 4.333-4.837h.003c.3-.01.568.054.807.195a.51.51 0 00.692-.171.485.485 0 00-.175-.672 2.41 2.41 0 00-.635-.252c.414-.874 1.19-1.321 2.32-1.321 1.38 0 1.882 1.415 1.972 1.717-.003.236-.01.995 0 1.183v1.184H9.837a1.44 1.44 0 00-1.348-.915c-.797 0-1.445.629-1.445 1.409s.648 1.408 1.445 1.408a1.44 1.44 0 001.348-.917h1.506v1.973H5.998a1.44 1.44 0 00-1.348-.915c-.796 0-1.445.632-1.445 1.409 0 .776.649 1.408 1.445 1.408.619 0 1.143-.383 1.352-.918h5.34v1.742H8.52a.499.499 0 00-.504.49v2.152a1.406 1.406 0 00-.938 1.314c0 .776.65 1.408 1.446 1.408.796 0 1.445-.632 1.445-1.408 0-.605-.393-1.113-.941-1.314v-1.66h2.32v6.403H5.295v-.327c.548-.201.941-.712.941-1.317 0-.777-.649-1.409-1.445-1.409-.797 0-1.446.632-1.446 1.409 0 .605.393 1.116.941 1.317v.82c0 .273.226.491.505.491h6.554v.605c0 .232-.007 1.093-.01 1.372-.138.306-.716 1.533-1.98 1.533M22.664 8.047c0-.948-.239-5.576-4.965-5.805C17.182.793 15.992 0 14.318 0c-1.278 0-2.057.766-2.494 1.412C11.346.689 10.553 0 9.356 0c-1.674 0-2.86.79-3.381 2.232-4.723.175-4.965 4.86-4.965 5.815 0 .538.077 2.32 1.032 3.761-.955 1.446-1.032 3.23-1.032 3.772 0 .948.239 5.58 4.965 5.805.517 1.449 1.707 2.242 3.385 2.242 1.277 0 2.057-.766 2.494-1.412.474.723 1.27 1.412 2.467 1.412 1.674 0 2.86-.787 3.382-2.229 4.722-.178 4.964-4.864 4.964-5.818 0-.538-.077-2.32-1.032-3.762.952-1.448 1.029-3.233 1.029-3.77" fill="#5CB615" fill-rule="nonzero"/></svg>
